public/flags/UZ.svg

<svg fill="none" height="53" viewBox="0 0 61 53" width="61" xmlns="http://www.w3.org/2000/svg" xmlns:xlink="http://www.w3.org/1999/xlink"><mask id="a" height="43" maskUnits="userSpaceOnUse" width="59" x="1" y="3"><rect fill="#fff" height="41.4393" rx="3.7125" stroke="#fff" stroke-width="1.06071" width="57.9393" x="1.53036" y="3.53036"/></mask><rect fill="#fff" height="41.4393" rx="3.7125" stroke="#f5f5f5" stroke-width="1.06071" width="57.9393" x="1.53036" y="3.53036"/><g clip-rule="evenodd" fill-rule="evenodd" mask="url(#a)"><path d="m1 17.1667h59v-14.1667h-59z" fill="#04aac8"/><path d="m1 45.5h59v-14.1666h-59z" fill="#23c840"/><path d="m10.8334 14.3334c.8666 0 1.6721-.2638 2.3419-.7161-.0776.0052-.1559.0078-.2348.0078-1.9395 0-3.51186-1.5857-3.51186-3.5417 0-1.95597 1.57236-3.54163 3.51186-3.54163.079 0 .1573.00263.235.0078-.6698-.45236-1.4754-.7162-2.3421-.7162-2.32746 0-4.21426 1.90279-4.21426 4.25003 0 2.3472 1.8868 4.25 4.21426 4.25zm7.0238-1.4167c0 .7824-.6289 1.4167-1.4047 1.4167-.7759 0-1.4048-.6343-1.4048-1.4167s.6289-1.4167 1.4048-1.4167c.7758 0 1.4047.6343 1.4047 1.4167zm4.2143-4.24999c.7758 0 1.4048-.63426 1.4048-1.41666 0-.78241-.629-1.41667-1.4048-1.41667s-1.4048.63426-1.4048 1.41667c0 .7824.629 1.41666 1.4048 1.41666zm7.0238-1.41666c0 .7824-.6289 1.41666-1.4047 1.41666-.7759 0-1.4048-.63426-1.4048-1.41666 0-.78241.6289-1.41667 1.4048-1.41667.7758 0 1.4047.63426 1.4047 1.41667zm-1.4047 7.08335c.7758 0 1.4047-.6343 1.4047-1.4167s-.6289-1.4167-1.4047-1.4167c-.7759 0-1.4048.6343-1.4048 1.4167s.6289 1.4167 1.4048 1.4167zm-4.2143-1.4167c0 .7824-.629 1.4167-1.4048 1.4167s-1.4048-.6343-1.4048-1.4167.629-1.4167 1.4048-1.4167 1.4048.6343 1.4048 1.4167z" fill="#fff"/></g></svg>

<svg width="61" height="53" viewBox="0 0 61 53" fill="none" xmlns="http://www.w3.org/2000/svg">
<rect x="1.53036" y="3.53036" width="57.9393" height="41.4393" rx="3.7125" fill="white" stroke="#F5F5F5" stroke-width="1.06071"/>
<mask id="mask0" mask-type="alpha" maskUnits="userSpaceOnUse" x="1" y="3" width="59" height="43">
<rect x="1.53036" y="3.53036" width="57.9393" height="41.4393" rx="3.7125" fill="white" stroke="white" stroke-width="1.06071"/>
</mask>
<g mask="url(#mask0)">
<path fill-rule="evenodd" clip-rule="evenodd" d="M1 17.1667H60V3H1V17.1667Z" fill="#04AAC8"/>
<path fill-rule="evenodd" clip-rule="evenodd" d="M1 45.5H60V31.3334H1V45.5Z" fill="#23C840"/>
<path fill-rule="evenodd" clip-rule="evenodd" d="M10.8334 14.3334C11.7 14.3334 12.5055 14.0696 13.1753 13.6173C13.0977 13.6225 13.0194 13.6251 12.9405 13.6251C11.001 13.6251 9.42864 12.0394 9.42864 10.0834C9.42864 8.12743 11.001 6.54177 12.9405 6.54177C13.0195 6.54177 13.0978 6.5444 13.1755 6.54957C12.5057 6.09721 11.7001 5.83337 10.8334 5.83337C8.50594 5.83337 6.61914 7.73616 6.61914 10.0834C6.61914 12.4306 8.50594 14.3334 10.8334 14.3334ZM17.8572 12.9167C17.8572 13.6991 17.2283 14.3334 16.4525 14.3334C15.6766 14.3334 15.0477 13.6991 15.0477 12.9167C15.0477 12.1343 15.6766 11.5 16.4525 11.5C17.2283 11.5 17.8572 12.1343 17.8572 12.9167ZM22.0715 8.66671C22.8473 8.66671 23.4763 8.03245 23.4763 7.25005C23.4763 6.46764 22.8473 5.83338 22.0715 5.83338C21.2957 5.83338 20.6667 6.46764 20.6667 7.25005C20.6667 8.03245 21.2957 8.66671 22.0715 8.66671ZM29.0953 7.25005C29.0953 8.03245 28.4664 8.66671 27.6906 8.66671C26.9147 8.66671 26.2858 8.03245 26.2858 7.25005C26.2858 6.46764 26.9147 5.83338 27.6906 5.83338C28.4664 5.83338 29.0953 6.46764 29.0953 7.25005ZM27.6906 14.3334C28.4664 14.3334 29.0953 13.6991 29.0953 12.9167C29.0953 12.1343 28.4664 11.5 27.6906 11.5C26.9147 11.5 26.2858 12.1343 26.2858 12.9167C26.2858 13.6991 26.9147 14.3334 27.6906 14.3334ZM23.4763 12.9167C23.4763 13.6991 22.8473 14.3334 22.0715 14.3334C21.2957 14.3334 20.6667 13.6991 20.6667 12.9167C20.6667 12.1343 21.2957 11.5 22.0715 11.5C22.8473 11.5 23.4763 12.1343 23.4763 12.9167Z" fill="white"/>
</g>
</svg>
